X: 37
T:Stella's Trip to Kamloops
M:4/4
L:1/8
C:Patricia Chafe
S:J. H. Collection
R:March
K:A
cd|"A"{c}{d}[e3e3]c A2 cd|"A"e<aA>a "D"{f}{g}f>e c<d|"A"e2 A2c2 {c}{d}[e
e
2]|"D" d>c B<A "E"B2 cd|!
"A"{c}{d}[e3e3]c A2 cd|"A"e<aA>a "D"f2 ed|"A"c>A c<e "D"d>c B<A|"E"E2 
{F}{G}[AA2] "A"A2:|!
ga|"E"{g}{a}b3 g e2 gg a<f e2 fg|"F#m"a4 f>e c<e|
"D"d>c B<A "E"B2 cd|!
"A"{c}{d}[e3e3]c A2 cd|"A"e<aA>a "D"f2 ed|"A"c>A c<e "D"d>c B<A|"E"E2 
{F}{G}[AA2] "A"A2 ga|!
"E"{g}{a}b3 g e2 gg a<f e2 fg|"F#m"a4 f>e c<e|
"D"d>c B<A "E"B2 ce|!
"D"d>e f<d "E"B2 c>d|"A"e<aA>a "D"f2 ed|"A"c>A c<e "D"d>c B<A|"E"E2 
{F}{G}[AA2] "A"A2 ||
